static/images/icon-shortcodes.svg

<svg fill="#777" width="100pt" height="100pt" version="1.1" viewBox="0 0 100 100" xmlns="http://www.w3.org/2000/svg">
 <g>
  <path d="m11.668 65h-3.3359v33.332c0 0.92188 0.74609 1.668 1.668 1.668h28.332v-3.332h-26.664z"/>
  <path d="m11.668 3.332h60v15c0 0.92188 0.74609 1.668 1.668 1.668h15v46.668h3.332v-48.336c0-0.035156-0.019531-0.066406-0.019531-0.10156-0.011719-0.14844-0.039063-0.29297-0.085938-0.43359-0.019531-0.054687-0.03125-0.10547-0.054688-0.15625-0.082031-0.17578-0.18359-0.34375-0.32812-0.48828l-16.668-16.668c-0.14453-0.14453-0.3125-0.24609-0.48828-0.32812-0.050782-0.023438-0.10156-0.035156-0.15234-0.054688-0.14453-0.050781-0.28906-0.078124-0.4375-0.085937-0.035156 0.0039062-0.066406-0.015625-0.10156-0.015625h-63.332c-0.92188 0-1.668 0.74609-1.668 1.668v26.668h3.332zm74.309 13.336h-10.977v-10.977z"/>
  <path d="m16.668 8.332h3.332v3.332h-3.332z"/>
  <path d="m16.668 15h23.332v3.332h-23.332z"/>
  <path d="m16.668 21.668h23.332v3.332h-23.332z"/>
  <path d="m23.332 8.332h3.332v3.332h-3.332z"/>
  <path d="m56.668 58.332v-12.645l9.5117-9.5117c0.47656-0.47656 0.62109-1.1914 0.36328-1.8164-0.25781-0.62109-0.87109-1.0273-1.543-1.0273h-63.332c-0.92188 0-1.668 0.74609-1.668 1.668v23.332c0 0.92188 0.74609 1.668 1.668 1.668h53.332c0.92188 0 1.668-0.74609 1.668-1.668zm-3.3359-13.332v11.668h-50v-20h57.645l-7.1562 7.1562c-0.3125 0.30859-0.48828 0.73438-0.48828 1.1758z" fill="#777"/>
  <path d="m98.332 73.332h-61.664c-0.64844 0-1.2344 0.375-1.5078 0.96094-0.27344 0.58594-0.18359 1.2773 0.22656 1.7734l7.9453 9.5352v12.73c0 0.92188 0.74609 1.668 1.668 1.668h53.332c0.92188 0 1.668-0.74609 1.668-1.668v-23.332c0-0.92188-0.74609-1.668-1.668-1.668zm-1.6641 23.336h-50v-11.668c0-0.39062-0.13672-0.76953-0.38672-1.0664l-6.0547-7.2656h56.441z"/>
  <path d="m6.668 41.668h3.332v3.332h-3.332z"/>
  <path d="m13.332 41.668h3.332v3.332h-3.332z"/>
  <path d="m20 41.668h30v3.332h-30z"/>
  <path d="m13.332 48.332h36.668v3.332h-36.668z"/>
  <path d="m56.668 81.668h36.668v3.332h-36.668z"/>
  <path d="m50 88.332h3.332v3.332h-3.332z"/>
  <path d="m56.668 88.332h3.332v3.332h-3.332z"/>
  <path d="m63.332 88.332h30v3.332h-30z"/>
  <path d="m70 36.668h13.332v3.332h-13.332z"/>
  <path d="m66.668 43.332h16.668v3.332h-16.668z"/>
  <path d="m60 50h23.332v3.332h-23.332z"/>
  <path d="m60 56.668h23.332v3.332h-23.332z"/>
  <path d="m15 90h3.332v3.332h-3.332z"/>
  <path d="m21.668 90h3.332v3.332h-3.332z"/>
  <path d="m15 83.332h3.332v3.332h-3.332z"/>
 </g>
</svg>
<!-- content management by Unlimiticon -->

<svg xmlns="http://www.w3.org/2000/svg" width="100pt" height="100pt" fill="#777" viewBox="0 0 100 100"><path d="M11.668 65H8.332v33.332c0 .922.746 1.668 1.668 1.668h28.332v-3.332H11.668zm0-61.668h60v15c0 .922.746 1.668 1.668 1.668h15v46.668h3.332V18.332c0-.035-.02-.066-.02-.102a1.816 1.816 0 0 0-.085-.433c-.02-.055-.032-.106-.055-.156a1.677 1.677 0 0 0-.328-.489L74.512.484a1.677 1.677 0 0 0-.489-.328c-.05-.023-.101-.035-.152-.054a1.552 1.552 0 0 0-.437-.086C73.398.019 73.367 0 73.332 0H10c-.922 0-1.668.746-1.668 1.668v26.668h3.332zm74.309 13.336H75V5.691z"/><path d="M16.668 8.332H20v3.332h-3.332zm0 6.668H40v3.332H16.668zm0 6.668H40V25H16.668zm6.664-13.336h3.332v3.332h-3.332zm33.336 50V45.687l9.512-9.512a1.667 1.667 0 0 0 .363-1.816A1.674 1.674 0 0 0 65 33.332H1.668C.746 33.332 0 34.078 0 35v23.332C0 59.253.746 60 1.668 60H55c.922 0 1.668-.746 1.668-1.668zM53.332 45v11.668h-50v-20h57.645l-7.156 7.156A1.655 1.655 0 0 0 53.333 45zm45 28.332H36.668c-.648 0-1.234.375-1.508.96a1.675 1.675 0 0 0 .227 1.774l7.945 9.536v12.73c0 .921.746 1.668 1.668 1.668h53.332c.922 0 1.668-.747 1.668-1.668V75c0-.922-.746-1.668-1.668-1.668zm-1.664 23.336h-50V85c0-.39-.137-.77-.387-1.066l-6.055-7.266h56.441z"/><path d="M6.668 41.668H10V45H6.668zm6.664 0h3.332V45h-3.332zm6.668 0h30V45H20zm-6.668 6.664H50v3.332H13.332zm43.336 33.336h36.668V85H56.668zM50 88.332h3.332v3.332H50zm6.668 0H60v3.332h-3.332zm6.664 0h30v3.332h-30zM70 36.668h13.332V40H70zm-3.332 6.664h16.668v3.332H66.668zM60 50h23.332v3.332H60zm0 6.668h23.332V60H60zM15 90h3.332v3.332H15zm6.668 0H25v3.332h-3.332zM15 83.332h3.332v3.332H15z"/></svg>
